X:7367
T:The Star of the County Down
O:england
M:3/4
L:1/8
K:G
D2|E4E2|E2D2E2|G4G2|
A2G2A2|B2A2G2|E4E2|D6-|
D2G2F2|E4E2|E2D2E2|G4G2|
A2G2A2|B2A2G2|E4D2|E6-|
E2B2c2|d4B2|B2A2G2|A6|
A2G2A2|B2A2G2|E4E2|D6-|
D2G2F2|E4E2|E2D2E2|G4G2|
A2G2A2|B2A2G2|E4D2|E6-|
E4


